X: 2
T: Pappilan pellolla
O: trad Finland
R: shottish
Z: John Chambers <jc@trillian.mit.edu>
M: 4/4
L: 1/8
K: G
|: "C"g2 fa g2 fe | "G"e>d dB G2 Bd \
|1 "D7"d>c cA F2 Ac | "G"e>d dB G2 Bd \
:|2 "D7"d>c cA F2 FA | A2 G2 "G"G4 :|
|: "D7"D2 FA c2 Bc | "G"e>d dB G2 Bd \
|1 "D7"d>c cA F2 Ac | "G"e>d dB G2 Bd \
:|2 "D7"d>c cA F2 FA | A2 G2 "G"G4 :|
